X:1
T:All In and Down and Out Blues
M:6/8
L:1/8
K:D
 A| AAAB-A F/2F/2|G-F G A2 D| FEF AFD| EDEF-D B,| D3 A,3| D/2 D3/2 FE-D F|\
 D3 A,3| A2 FE-D E| D3- D2||
